Catalina-dark/status/16/weather-storm-symbolic.svg

<?xml version="1.0" encoding="UTF-8" standalone="no"?>
<!-- Created with Inkscape (http://www.inkscape.org/) -->

<svg
   xmlns:osb="http://www.openswatchbook.org/uri/2009/osb"
   xmlns:dc="http://purl.org/dc/elements/1.1/"
   xmlns:cc="http://creativecommons.org/ns#"
   xmlns:rdf="http://www.w3.org/1999/02/22-rdf-syntax-ns#"
   xmlns:svg="http://www.w3.org/2000/svg"
   xmlns="http://www.w3.org/2000/svg"
   xmlns:sodipodi="http://sodipodi.sourceforge.net/DTD/sodipodi-0.dtd"
   xmlns:inkscape="http://www.inkscape.org/namespaces/inkscape"
   sodipodi:docname="weather-storm-symbolic.svg"
   inkscape:export-filename="/home/sam/source-symbolic.png"
   inkscape:export-xdpi="270"
   inkscape:export-ydpi="270"
   height="16"
   id="svg7384"
   style="enable-background:new"
   version="1.1"
   inkscape:version="0.91 r13725"
   width="16">
  <sodipodi:namedview
     inkscape:bbox-nodes="true"
     inkscape:bbox-paths="true"
     bordercolor="#666666"
     borderlayer="false"
     borderopacity="1"
     inkscape:current-layer="svg7384"
     inkscape:cx="2.8690494"
     inkscape:cy="3.7584967"
     gridtolerance="10"
     inkscape:guide-bbox="true"
     guidetolerance="10"
     id="namedview88"
     inkscape:object-nodes="true"
     inkscape:object-paths="true"
     objecttolerance="10"
     pagecolor="#f7f7f7"
     inkscape:pageopacity="1"
     inkscape:pageshadow="2"
     showborder="true"
     showgrid="false"
     showguides="true"
     inkscape:showpageshadow="false"
     inkscape:snap-bbox="true"
     inkscape:snap-bbox-edge-midpoints="false"
     inkscape:snap-bbox-midpoints="false"
     inkscape:snap-center="false"
     inkscape:snap-global="true"
     inkscape:snap-grids="true"
     inkscape:snap-intersection-paths="true"
     inkscape:snap-midpoints="true"
     inkscape:snap-nodes="true"
     inkscape:snap-object-midpoints="true"
     inkscape:snap-others="true"
     inkscape:snap-page="false"
     inkscape:snap-smooth-nodes="true"
     inkscape:snap-to-guides="true"
     inkscape:window-height="701"
     inkscape:window-maximized="0"
     inkscape:window-width="1362"
     inkscape:window-x="0"
     inkscape:window-y="28"
     inkscape:zoom="22.627417">
    <inkscape:grid
       color="#000000"
       dotted="false"
       empcolor="#0800ff"
       empopacity="0.4627451"
       empspacing="4"
       enabled="true"
       id="grid4866"
       opacity="0.16470588"
       originx="-304px"
       originy="-547.9331px"
       snapvisiblegridlinesonly="true"
       spacingx="0.25px"
       spacingy="0.25px"
       type="xygrid"
       visible="true" />
  </sodipodi:namedview>
  <metadata
     id="metadata90">
    <rdf:RDF>
      <cc:Work
         rdf:about="">
        <dc:format>image/svg+xml</dc:format>
        <dc:type
           rdf:resource="http://purl.org/dc/dcmitype/StillImage" />
        <dc:title>Paper Symbolic Icon Theme</dc:title>
      </cc:Work>
    </rdf:RDF>
  </metadata>
  <title
     id="title8473">Paper Symbolic Icon Theme</title>
  <defs
     id="defs7386">
    <linearGradient
       id="linearGradient5606"
       osb:paint="solid">
      <stop
         id="stop5608"
         offset="0"
         style="stop-color:#000000;stop-opacity:1;" />
    </linearGradient>
    <filter
       id="filter7554-8"
       style="color-interpolation-filters:sRGB">
      <feBlend
         id="feBlend7556-7"
         in2="BackgroundImage"
         mode="darken" />
    </filter>
  </defs>
  <path
     d="m 7.73749,8 1.63636,0 -1.0909,2.18182 1.0909,0 L 7.32839,14 l 0.4091,-2.72726 -1.36364,0 L 7.73749,8 Z"
     id="path10093"
     inkscape:connector-curvature="0"
     style="display:inline;fill:#bebebe;fill-opacity:1;enable-background:new" />
  <path
     inkscape:connector-curvature="0"
     style="display:inline;fill:#bebebe;fill-opacity:1;enable-background:new"
     d="M 4.72727,8.85714 A 0.54545455,0.57142856 0 0 1 5.27273,9.42857 0.54545455,0.57142856 0 0 1 4.72727,10 2.7272727,2.8571428 0 0 1 2,7.14286 2.7272727,2.8571428 0 0 1 4.72727,4.2857103 c 0.54546,-1.34285 1.8,-2.28571 3.27273,-2.28571 1.87091,0 3.40364,1.52 3.54545,3.44571 l 0.27273,-0.0171 A 2.1818182,2.2857143 0 0 1 14,7.71433 2.1818182,2.2857143 0 0 1 11.81818,10.00004 l -0.54545,0 A 0.54545455,0.57142856 0 0 1 10.72727,9.42861 0.54545455,0.57142856 0 0 1 11.27273,8.85718 l 0.54545,0 A 1.0909091,1.1428571 0 0 0 12.90909,7.71433 1.0909091,1.1428571 0 0 0 11.81818,6.57147 l -1.09091,0 0,-0.57143 A 2.7272727,2.8571428 0 0 0 8,3.1429003 c -1.36364,0 -2.48182,1.04 -2.69455,2.39428 -0.18,-0.0686 -0.37636,-0.10857 -0.57818,-0.10857 A 1.6363636,1.7142856 0 0 0 3.09091,7.1429 1.6363636,1.7142856 0 0 0 4.72727,8.85718"
     id="path9931" />
</svg>

<svg width="16" height="16" enable-background="new" version="1.1" xmlns="http://www.w3.org/2000/svg">
<path d="m7.7375 8h1.6364l-1.0909 2.1818h1.0909l-2.0455 3.8182 0.4091-2.7273h-1.3636l1.3636-3.2727z" enable-background="new" fill="#bebebe"/>
<path d="m4.7273 8.8571a0.54545 0.57143 0 0 1 0.54546 0.57143 0.54545 0.57143 0 0 1-0.54546 0.57143 2.7273 2.8571 0 0 1-2.7273-2.8571 2.7273 2.8571 0 0 1 2.7273-2.8571c0.54546-1.3428 1.8-2.2857 3.2727-2.2857 1.8709 0 3.4036 1.52 3.5454 3.4457l0.27273-0.0171a2.1818 2.2857 0 0 1 2.1818 2.2857 2.1818 2.2857 0 0 1-2.1818 2.2857h-0.54545a0.54545 0.57143 0 0 1-0.54546-0.57143 0.54545 0.57143 0 0 1 0.54546-0.57143h0.54545a1.0909 1.1429 0 0 0 1.0909-1.1428 1.0909 1.1429 0 0 0-1.0909-1.1429h-1.0909v-0.57143a2.7273 2.8571 0 0 0-2.7273-2.8571c-1.3636 0-2.4818 1.04-2.6946 2.3943-0.18-0.0686-0.37636-0.10857-0.57818-0.10857a1.6364 1.7143 0 0 0-1.6364 1.7143 1.6364 1.7143 0 0 0 1.6364 1.7143" enable-background="new" fill="#bebebe"/>
</svg>
